X:1
T: Amaging Grace Normal
Q: 72
L: 1/16
M: 3/4
K:D minor
C2 F2 || F8  AGF2|A8 G2F2|F8 D4|C8 C2F2|
F8 AGF2|A8 G2A2|c12-|c8 A2c2|
c8 (3:2:3A2G2F2|A8 G4|F8 D4|C8 C2F2|
F8 AGF2|A8 G4|F12-|F8||
